src/assets/images/homepage/home/partner_logo_5.svg

<svg fill="none" height="89" viewBox="0 0 89 89" width="89" xmlns="http://www.w3.org/2000/svg" xmlns:xlink="http://www.w3.org/1999/xlink"><clipPath id="a"><path d="m19.6646 18h49v52h-49z"/></clipPath><circle cx="44.2225" cy="44.2225" fill="#245ae5" r="44.2225"/><g clip-path="url(#a)"><path d="m47.5528 18.78 17.0719 8.71c2.476 1.3 4.0399 3.77 4.0399 6.63v4.03h-6.2554v-4.03c0-.39-.2606-.78-.6516-1.04l-17.0718-8.71c-.2606-.13-.6516-.13-1.0425 0l-17.0718 8.71c-.391.13-.6516.52-.6516 1.04v4.03h-6.2553v-4.03c0-2.73 1.5638-5.33 4.0398-6.63l17.0719-8.71c2.0851-1.04 4.5611-1.04 6.7765 0zm1.9548 24.96c0-2.99-2.476-5.33-5.343-5.33-2.8671 0-5.3431 2.34-5.3431 5.33s2.476 5.33 5.3431 5.33c2.867 0 5.343-2.34 5.343-5.33zm12.1197 11.18c.391-.13.6516-.52.6516-1.04v-4.03h6.2553v4.03c0 2.73-1.5638 5.33-4.0399 6.63l-17.0718 8.71c-1.0425.52-2.2154.78-3.3883.78-1.1728 0-2.3457-.26-3.3883-.78l-16.9415-8.71c-2.476-1.3-4.0398-3.77-4.0398-6.63v-4.03h6.2553v4.03c0 .39.2606.78.6516 1.04l14.4654 7.28v-7.28c-4.9521-1.43-8.4708-5.85-8.4708-11.18 0-6.37 5.2128-11.7 11.7288-11.7 6.5159 0 11.7287 5.2 11.7287 11.7 0 5.33-3.6489 9.88-8.4708 11.18v7.28z" fill="#fff"/></g></svg>

<svg width="89" height="89" viewBox="0 0 89 89" fill="none" xmlns="http://www.w3.org/2000/svg">
<circle cx="44.2225" cy="44.2225" r="44.2225" fill="#245AE5"/>
<g clip-path="url(#clip0_5626_12362)">
<path d="M47.5528 18.78L64.6247 27.49C67.1007 28.79 68.6646 31.26 68.6646 34.12V38.15H62.4092V34.12C62.4092 33.73 62.1486 33.34 61.7576 33.08L44.6858 24.37C44.4252 24.24 44.0342 24.24 43.6433 24.37L26.5715 33.08C26.1805 33.21 25.9199 33.6 25.9199 34.12V38.15H19.6646V34.12C19.6646 31.39 21.2284 28.79 23.7044 27.49L40.7763 18.78C42.8614 17.74 45.3374 17.74 47.5528 18.78ZM49.5076 43.74C49.5076 40.75 47.0316 38.41 44.1646 38.41C41.2975 38.41 38.8215 40.75 38.8215 43.74C38.8215 46.73 41.2975 49.07 44.1646 49.07C47.0316 49.07 49.5076 46.73 49.5076 43.74ZM61.6273 54.92C62.0183 54.79 62.2789 54.4 62.2789 53.88V49.85H68.5342V53.88C68.5342 56.61 66.9704 59.21 64.4943 60.51L47.4225 69.22C46.38 69.74 45.2071 70 44.0342 70C42.8614 70 41.6885 69.74 40.6459 69.22L23.7044 60.51C21.2284 59.21 19.6646 56.74 19.6646 53.88V49.85H25.9199V53.88C25.9199 54.27 26.1805 54.66 26.5715 54.92L41.0369 62.2V54.92C36.0848 53.49 32.5661 49.07 32.5661 43.74C32.5661 37.37 37.7789 32.04 44.2949 32.04C50.8108 32.04 56.0236 37.24 56.0236 43.74C56.0236 49.07 52.3747 53.62 47.5528 54.92V62.2L61.6273 54.92Z" fill="white"/>
</g>
<defs>
<clipPath id="clip0_5626_12362">
<rect width="49" height="52" fill="white" transform="translate(19.6646 18)"/>
</clipPath>
</defs>
</svg>
